apps/www/public/images/logos/publicity/archive/pika.svg

<svg width="69" height="22" viewBox="0 0 69 22" fill="none" xmlns="http://www.w3.org/2000/svg">
<path d="M26.462 0.689957H23.2275V4.07596H26.462V0.689957ZM67.8984 17.9195V9.83187C67.8984 5.1042 64.9394 2.99512 58.3014 2.99512C52.7239 2.99512 49.395 5.50298 49.395 9.70357H52.6562C52.6562 7.1891 54.3974 6.06942 58.3014 6.06942C63.0177 6.06942 64.6911 7.11498 64.6911 10.0628C63.5387 10.2176 62.4449 10.355 61.3758 10.4879C53.3599 11.4901 48.5222 12.0958 48.5222 16.7343C48.5222 18.5536 49.2189 19.8435 50.6534 20.6758C51.9369 21.4207 54.2238 21.8303 57.0925 21.8303C60.9563 21.8303 64.1725 20.8911 65.0948 19.4948C65.0116 20.7649 65.0948 21.5536 65.0948 21.5602H68.036C68.0316 21.5472 67.8984 20.1005 67.8984 17.9195ZM64.6911 14.1111C64.6911 16.0827 63.992 17.4358 62.553 18.2441C61.2674 18.9674 59.3345 19.3052 56.4747 19.3052C54.7222 19.3052 51.7835 18.9674 51.7835 16.7081C51.7835 15.6057 52.5502 14.9325 54.429 14.3879C56.4545 13.7995 59.8579 13.3441 64.6935 12.8038V14.1111H64.6911ZM51.9459 16.669H51.865V16.7451H51.9459V16.669ZM11.9957 0.689957H0.384766V21.5602H3.61908V14.1351H11.9957C19.8198 14.1351 20.6656 9.43349 20.6656 7.4136C20.6632 5.39185 19.8173 0.689957 11.9957 0.689957ZM11.4115 11.037H3.61908V3.78831H11.4138C15.4647 3.78831 17.1921 4.87112 17.1921 7.41148C17.19 9.95197 15.4623 11.037 11.4115 11.037ZM48.1027 3.12157H43.6234L32.4614 11.7778V0.689957H29.2271V21.5602H32.4614V12.7493L43.727 21.5602H48.4184L36.3858 12.0348L48.1027 3.12157ZM26.462 5.53997H23.2275V21.5602H26.462V5.53997Z" fill="#B4B4B4"/>
</svg>

<svg xmlns="http://www.w3.org/2000/svg" width="69" height="22" fill="none" viewBox="0 0 69 22"><path fill="#b4b4b4" d="M26.462.69h-3.235v3.386h3.235zm41.436 17.23V9.832c0-4.728-2.959-6.837-9.597-6.837-5.577 0-8.906 2.508-8.906 6.709h3.261c0-2.515 1.741-3.635 5.645-3.635 4.717 0 6.39 1.046 6.39 3.994-1.152.155-2.246.292-3.315.425-8.016 1.002-12.854 1.608-12.854 6.246 0 1.82.697 3.11 2.131 3.942 1.284.745 3.57 1.154 6.44 1.154 3.863 0 7.08-.939 8.002-2.335-.083 1.27 0 2.059 0 2.065h2.941c-.004-.013-.138-1.46-.138-3.64m-3.207-3.809c0 1.972-.699 3.325-2.138 4.133-1.286.723-3.218 1.061-6.078 1.061-1.753 0-4.692-.338-4.692-2.597 0-1.102.767-1.775 2.646-2.32 2.026-.588 5.429-1.044 10.264-1.584v1.307zM51.946 16.67h-.081v.076h.08zM11.996.69H.385v20.87h3.234v-7.425h8.377c7.824 0 8.67-4.702 8.67-6.721-.003-2.022-.849-6.724-8.67-6.724m-.585 10.347H3.62V3.788h7.795c4.05 0 5.778 1.083 5.778 3.623-.002 2.541-1.73 3.626-5.78 3.626m36.692-7.915h-4.48l-11.162 8.656V.69h-3.234v20.87h3.234v-8.81l11.266 8.81h4.691l-12.032-9.525zM26.462 5.54h-3.235v16.02h3.235z"/></svg>
